flaticon/army-badges/chevron-1.svg

<svg xmlns="http://www.w3.org/2000/svg" width="32" height="32" viewBox="0 0 24 24">
    <path d="M 12 18.429688 C 10.878906 18.429688 9.996094 19.3125 9.996094 20.433594 C 9.996094 21.554688 10.878906 22.4375 12 22.4375 C 13.121094 22.4375 14.003906 21.554688 14.003906 20.433594 C 14.003906 19.3125 13.121094 18.429688 12 18.429688 Z M 12 21.636719 C 11.320312 21.636719 10.796875 21.113281 10.796875 20.433594 C 10.796875 19.753906 11.320312 19.230469 12 19.230469 C 12.679688 19.230469 13.203125 19.753906 13.203125 20.433594 C 13.203125 21.113281 12.679688 21.636719 12 21.636719 Z M 12 21.636719"/>
    <path d="M 18.410156 0 L 5.589844 0 C 5.347656 0 5.1875 0.160156 5.1875 0.402344 L 5.1875 19.230469 C 5.1875 19.632812 5.390625 19.992188 5.75 20.195312 L 7.753906 21.597656 C 7.8125 21.625 7.875 21.679688 7.933594 21.703125 L 10.679688 23.597656 C 11.078125 23.878906 11.519531 24 12 24 C 12.480469 24 12.921875 23.878906 13.320312 23.597656 L 16.066406 21.703125 C 16.105469 21.6875 16.144531 21.65625 16.171875 21.628906 L 17.089844 20.996094 L 18.210938 20.234375 C 18.570312 20.035156 18.8125 19.632812 18.8125 19.230469 L 18.8125 0.402344 C 18.8125 0.160156 18.652344 0 18.410156 0 Z M 17.808594 19.511719 L 16.40625 20.472656 L 16.40625 14.945312 L 18.011719 13.953125 L 18.011719 19.152344 C 18.011719 19.3125 17.929688 19.433594 17.808594 19.511719 Z M 7.59375 20.511719 L 6.191406 19.550781 C 6.070312 19.511719 5.988281 19.3125 5.988281 19.191406 L 5.988281 13.941406 L 7.59375 14.945312 Z M 11.757812 6.371094 C 11.917969 6.449219 12.082031 6.449219 12.199219 6.371094 L 18.011719 2.722656 L 18.011719 4.207031 L 12 7.972656 L 8.28125 5.640625 C 8.253906 5.613281 8.226562 5.589844 8.195312 5.570312 L 5.988281 4.171875 L 5.988281 2.722656 Z M 12 9.976562 L 8.394531 7.695312 L 8.394531 6.601562 C 10.121094 7.675781 11.957031 8.816406 12 8.816406 C 12.042969 8.816406 13.878906 7.675781 15.605469 6.601562 L 15.605469 7.71875 Z M 5.988281 6.175781 L 5.988281 5.167969 L 7.59375 6.171875 L 7.59375 7.191406 Z M 5.988281 9.574219 L 7.59375 10.578125 L 7.59375 11.597656 L 5.988281 10.585938 Z M 8.394531 11.011719 L 11.800781 13.140625 C 11.839844 13.183594 11.917969 13.222656 12 13.222656 C 12.082031 13.222656 12.160156 13.222656 12.199219 13.183594 L 15.605469 11.054688 L 15.605469 12.128906 L 12 14.382812 L 8.394531 12.105469 Z M 18.011719 9.574219 L 18.011719 10.617188 L 16.40625 11.621094 L 16.40625 10.550781 L 17.007812 10.175781 Z M 18.011719 8.613281 L 12 12.378906 L 5.988281 8.574219 L 5.988281 7.132812 L 7.816406 8.273438 C 7.828125 8.28125 7.839844 8.289062 7.855469 8.296875 L 11.757812 10.738281 C 11.917969 10.816406 12.082031 10.816406 12.199219 10.738281 L 16.015625 8.34375 C 16.054688 8.335938 16.175781 8.285156 16.207031 8.253906 L 18.011719 7.113281 Z M 18.011719 6.210938 L 16.40625 7.210938 L 16.40625 6.128906 L 17.414062 5.476562 C 17.636719 5.335938 17.839844 5.210938 18.011719 5.105469 Z M 12 5.570312 L 8.394531 3.289062 L 8.394531 0.800781 L 15.605469 0.800781 L 15.605469 3.3125 Z M 5.988281 12.980469 L 5.988281 11.550781 L 6.644531 11.953125 L 11.757812 15.183594 C 11.917969 15.265625 12.082031 15.265625 12.199219 15.183594 L 18.011719 11.578125 L 18.011719 13.023438 L 12 16.789062 Z M 18.011719 0.800781 L 18.011719 1.804688 L 16.40625 2.804688 L 16.40625 0.800781 Z M 5.988281 0.800781 L 7.59375 0.800781 L 7.59375 2.765625 L 5.988281 1.761719 Z M 12.882812 22.917969 C 12.359375 23.277344 11.640625 23.277344 11.117188 22.917969 L 8.394531 21.058594 L 8.394531 15.421875 L 11.800781 17.550781 C 11.839844 17.589844 11.917969 17.628906 12 17.628906 C 12.082031 17.628906 12.160156 17.589844 12.199219 17.550781 L 15.605469 15.441406 L 15.605469 21.035156 Z M 12.882812 22.917969"/>
</svg>

<svg xmlns="http://www.w3.org/2000/svg" width="32" height="32" viewBox="0 0 24 24">
    <path d="M12 18.43a1.986 1.986 0 0 0-2.004 2.004c0 1.12.883 2.003 2.004 2.003a1.986 1.986 0 0 0 2.004-2.003A1.986 1.986 0 0 0 12 18.43zm0 3.207c-.68 0-1.203-.524-1.203-1.203 0-.68.523-1.204 1.203-1.204s1.203.524 1.203 1.204c0 .68-.523 1.203-1.203 1.203zm0 0"/>
    <path d="M18.41 0H5.59c-.242 0-.402.16-.402.402V19.23c0 .403.203.762.562.965l2.004 1.403c.059.027.121.082.18.105l2.746 1.895c.398.28.84.402 1.32.402.48 0 .922-.121 1.32-.402l2.746-1.895a.343.343 0 0 0 .106-.074l.918-.633 1.12-.762c.36-.199.602-.601.602-1.004V.402c0-.242-.16-.402-.402-.402zm-.601 19.512l-1.403.96v-5.527l1.606-.992v5.2c0 .16-.082.28-.203.359zm-10.215 1L6.19 19.55c-.12-.04-.203-.238-.203-.36v-5.25l1.606 1.004zm4.164-14.14c.16.077.324.077.441 0l5.813-3.65v1.485L12 7.973 8.281 5.64a.484.484 0 0 0-.086-.07l-2.207-1.4V2.724zM12 9.976L8.395 7.695V6.602C10.12 7.676 11.957 8.816 12 8.816c.043 0 1.879-1.14 3.605-2.214v1.117zM5.988 6.176V5.168l1.606 1.004v1.02zm0 3.398l1.606 1.004v1.02l-1.606-1.012zm2.407 1.438L11.8 13.14c.039.043.117.082.199.082s.16 0 .2-.04l3.405-2.128v1.074L12 14.383l-3.605-2.278zm9.617-1.438v1.043l-1.606 1.004v-1.07l.602-.375zm0-.96L12 12.378 5.988 8.574V7.133l1.828 1.14a.344.344 0 0 0 .04.024l3.902 2.441c.16.078.324.078.441 0l3.817-2.394a.612.612 0 0 0 .191-.09l1.805-1.14zm0-2.403l-1.606 1V6.129l1.008-.652c.223-.141.426-.266.598-.372zM12 5.57L8.395 3.288V.801h7.21v2.512zm-6.012 7.41v-1.43l.657.402 5.113 3.23c.16.083.324.083.441 0l5.813-3.605v1.445L12 16.79zM18.012.8v1.004l-1.606 1V.8zM5.988.8h1.606v1.965L5.988 1.762zm6.895 22.117a1.58 1.58 0 0 1-1.766 0l-2.722-1.86v-5.636L11.8 17.55a.3.3 0 0 0 .199.078.3.3 0 0 0 .2-.078l3.405-2.11v5.594zm0 0"/>
</svg>
